X: 125
T: REEL: Dunmore Lasses
C: C: Trad.; S: Various
C: Set Leaders: André, Anton, Sophie
Z: [Unedited]; Tania Sycheva at The Session
N: https://thesession.org/members/26966/sets/96708
R: Reel
M: 4/4
L: 1/8
Q: 1/2=100
K: Emin
|:E2 EF G2 GA|Beed Beed|EDEF GABG|A2 BA GEFD|
EDEF GFGA|Beed e2 ef|gefd eBdB|AcBA GE E2:||
|:gfeg fedc|Beed Beef|g2 eg fedB|AcBA GE E2|
gfeg fedc|Beed e2 ef|gefd eBdB|A2 BA GE E2:||

